resources/haticons/SVG/no_luggage.svg

<!-- Generated by IcoMoon.io -->
<svg version="1.1" xmlns="http://www.w3.org/2000/svg" width="24" height="24" viewBox="0 0 24 24">
<title>no_luggage</title>
<path d="M12.75 9v0.938l1.734 1.734v-2.672h1.5v4.172l3 3v-8.156q0-0.844-0.586-1.43t-1.383-0.586h-2.016v-3q0-0.422-0.305-0.703t-0.68-0.281h-4.031q-0.375 0-0.68 0.281t-0.305 0.703v3h-0.188l3 3h0.938zM10.5 3.516h3v2.484h-3v-2.484zM21.188 21.188l-18.375-18.375-1.406 1.406 3.609 3.609v11.156q0 0.844 0.586 1.43t1.383 0.586q0 0.422 0.305 0.703t0.727 0.281q0.375 0 0.68-0.281t0.305-0.703h6q0 0.422 0.305 0.703t0.68 0.281q0.422 0 0.727-0.281t0.305-0.703q0.469 0 0.938-0.234l1.828 1.828zM8.016 18v-7.172l1.5 1.5v5.672h-1.5zM12.75 18h-1.5v-3.938l1.5 1.5v2.438z"></path>
</svg>

<svg xmlns="http://www.w3.org/2000/svg" width="24" height="24"><path d="M12.75 9v.938l1.734 1.734V9h1.5v4.172l3 3V8.016q0-.844-.586-1.43T17.015 6h-2.016V3q0-.422-.305-.703t-.68-.281H9.983q-.375 0-.68.281T8.998 3v3H8.81l3 3h.938zM10.5 3.516h3V6h-3V3.516zm10.688 17.672L2.813 2.813 1.407 4.219l3.609 3.609v11.156q0 .844.586 1.43T6.985 21q0 .422.305.703t.727.281q.375 0 .68-.281T9.002 21h6q0 .422.305.703t.68.281q.422 0 .727-.281t.305-.703q.469 0 .938-.234l1.828 1.828zM8.016 18v-7.172l1.5 1.5V18h-1.5zm4.734 0h-1.5v-3.938l1.5 1.5V18z"/></svg>
